_inc/systems/logos/cave.svg

<?xml version="1.0" encoding="utf-8"?>
<svg viewBox="25.4439 25.0234 1063.2202 415.3665" width="1063.2202" height="415.3665" xmlns="http://www.w3.org/2000/svg">
  <path d="M 302.633 350.695 C 288.712 366.345 276.537 365.965 276.029 365.945 L 275.977 365.965 C 275.934 365.965 275.874 365.945 275.874 365.945 L 258.99 365.569 C 262.804 362.72 266.794 359.109 270.833 354.598 C 270.942 354.427 271.098 354.226 271.256 354.059 C 301.44 310.167 291.421 280.617 282.764 266.884 C 282.35 266.236 281.895 265.613 281.402 265.02 L 287.802 267.111 C 301.08 270.662 311.565 279.894 316.013 291.909 C 320.335 303.391 321.467 322.992 302.633 350.695 M 234.603 423.141 C 229.184 423.969 222.576 424.853 216.103 425.566 C 229.332 410.483 234.818 387.779 236.331 376.175 L 269.499 377.003 C 267.757 389.668 260.916 419.145 234.603 423.141 M 182.673 429.18 C 169.479 428.154 134.667 424.675 113.924 422.515 L 98.415 421.002 C 91.039 420.348 83.884 412.65 78.914 405.558 C 99.347 407.067 147.212 409.798 156.642 409.69 C 169.642 409.286 184.603 402.883 187.969 391.136 C 190.198 383.532 190.332 382.533 190.703 378.137 C 190.95 375.768 191.211 372.098 192.22 364.574 C 194.738 346.243 204.154 342.66 205.784 342.18 C 209.266 341.974 223.695 340.319 236.137 327.587 C 236.275 327.382 236.384 327.187 236.582 327.017 C 248.202 311.934 243.154 288.368 243.02 287.345 C 242.963 287.174 241.013 274.774 230.856 267.907 C 224.467 263.489 216.6 262.286 207.438 264.14 C 204.256 264.797 201.318 265.91 198.742 267.187 C 205.625 258.505 215.073 253.113 226.213 251.492 C 232.8 250.612 239.5 251.098 245.884 252.918 C 246.35 253.141 246.756 253.371 247.26 253.51 L 253.078 255.485 C 261.223 259.131 268.378 265.173 273.154 272.718 C 280.386 284.145 288.451 308.943 262.063 347.536 C 247.324 364.174 234.239 364.939 231.981 365.002 L 231.463 364.939 C 231.138 364.939 230.937 365.033 230.627 365.033 C 230.581 365.033 230.539 365.033 230.489 365.089 C 228.272 365.437 226.463 367.027 225.857 369.159 C 225.857 369.159 225.857 369.218 225.815 369.246 C 225.815 369.472 225.758 369.681 225.758 369.879 C 225.705 370.07 225.705 370.185 225.705 370.331 C 225.36 377.058 220.52 407.352 204.013 421.858 C 200.411 425.103 196.541 427.183 192.22 428.296 C 191.306 428.38 190.854 428.38 190.738 428.46 C 190.151 428.529 189.58 428.695 189.048 428.95 C 186.934 429.206 184.801 429.283 182.673 429.18 M 48.751 341.06 C 36.587 339.046 36.728 324.172 36.728 323.618 C 36.728 323.73 43.611 184.552 43.611 184.552 C 43.611 183.86 44.091 171.264 56.223 167.33 C 56.819 167.139 57.387 166.906 57.892 166.415 C 68.228 158.544 70.278 150.547 72.634 132.765 C 73.523 120.76 81.711 115.226 82.036 115.056 C 122.182 93.26 199.473 51.431 202.231 50.029 C 205.124 48.596 209.566 47.323 212.561 48.69 C 214.364 49.545 215.743 51.546 216.6 54.527 C 217.341 70.062 220.636 114.123 220.939 118.917 C 220.837 121.108 219.14 140.598 201.12 145.103 C 195.684 146.532 191.362 146.237 188.48 144.188 C 183.993 141.148 183.354 134.817 183.354 134.786 C 183.315 134.532 183.315 134.386 183.234 134.194 L 180.899 122.361 C 180.077 118.193 177.72 114.809 174.168 112.69 C 166.294 107.939 154.843 110.899 153.52 111.215 C 153.181 111.322 152.854 111.465 152.546 111.64 C 152.179 111.786 119.318 128.208 106.141 134.532 C 90.432 142.021 91.843 164.287 91.903 165.219 L 91.039 320.881 C 91.039 322.345 91.236 334.708 98.684 341.974 C 102.06 345.199 106.579 346.903 111.567 346.764 C 126.804 346.42 159.425 344.135 160.776 344.086 C 161.182 344.023 161.478 344.002 161.824 343.943 C 162.805 343.627 186.268 337.358 187.969 317.802 C 188.932 307.294 190.29 296.358 190.332 296.267 C 190.392 295.836 194.089 278.336 209.675 275.055 C 215.743 273.859 220.636 274.457 224.259 276.996 C 230.433 281.209 231.833 289.345 231.833 289.401 C 231.918 289.968 235.982 309.089 227.769 320.088 C 217.221 330.666 205.421 331.007 204.93 331.007 C 204.613 331.007 204.295 331.087 204.013 331.146 C 203.212 331.309 184.818 334.76 181.001 363.096 C 179.996 370.901 179.643 374.728 179.438 377.236 C 179.128 380.881 179.128 381.107 177.057 388.092 C 175.381 394.068 164.999 398.315 156.321 398.458 C 146.418 398.684 87.222 395.237 73.037 393.932 C 67.498 393.383 65.286 380.366 65.286 373.204 C 65.963 369.962 67.932 357.968 62.005 349.3 C 59.021 344.886 54.417 342.065 48.751 341.06 M 243.556 38.661 C 248.245 40.825 256.383 46.693 258.881 60.405 C 259.914 81.927 263.351 123.554 263.4 123.901 C 263.47 125.47 265.097 164.85 219.08 179.849 C 212.818 181.923 207.163 182.013 202.037 180.242 C 200.693 179.588 199.882 179.216 199.882 179.216 C 199.561 179.049 199.31 178.987 198.951 178.875 C 198.806 178.82 198.64 178.733 198.485 178.67 C 187.305 172.492 181.47 158.015 179.181 151.03 C 180.028 151.828 180.929 152.569 181.876 153.249 C 187.7 157.33 195.109 158.245 203.953 155.907 C 225.568 150.376 231.918 129.366 232.274 118.997 L 232.274 118.517 C 232.228 117.946 228.595 68.531 227.854 53.33 C 227.854 52.913 227.815 52.537 227.713 52.227 C 226.058 46.185 223.289 42.675 220.477 40.508 L 225.466 37.865 C 230.323 35.405 237.457 35.576 243.556 38.661 M 299.743 96.021 C 300.682 115.118 303.61 151.493 303.61 151.83 C 303.719 153.166 305.088 187.711 264.638 201.106 C 258.634 203.103 244.551 200.188 241.171 198.372 C 241.073 198.313 232.595 194.435 223.426 190.132 C 277.056 172.12 274.696 123.595 274.696 123.161 C 274.654 122.583 271.408 83.259 270.272 61.571 L 287.131 77.151 C 292.723 81.833 298.103 86.883 299.743 96.021 M 138.791 310.372 L 138.265 173.181 L 170.143 185.947 L 173.854 306.748 L 138.791 310.372 Z M 175.904 176.221 L 147.417 164.85 L 168.911 156.025 C 170.704 161.09 173.854 168.523 178.782 175.341 L 175.904 176.221 Z M 159.383 333.003 C 154.888 333.31 125.174 335.247 111.299 335.623 C 109.302 335.703 107.821 335.16 106.579 333.967 C 103.083 330.666 102.307 323.309 102.307 320.999 L 103.125 164.913 C 103.125 164.287 102.427 148.72 111.101 144.564 C 123.368 138.751 152.638 124.1 157.002 121.874 C 159.789 121.22 165.528 120.538 168.252 122.214 C 168.869 122.583 169.479 123.161 169.793 124.552 L 172.104 136.097 C 172.146 137.127 172.626 139.861 173.963 143.082 C 172.778 142.762 171.462 142.762 170.344 143.315 L 130.363 159.667 C 129.961 159.918 129.488 160.186 129.069 160.485 C 128.973 160.547 128.889 160.626 128.822 160.718 C 128.469 161.034 128.165 161.34 127.844 161.772 L 127.844 161.803 C 127.622 162.088 127.467 162.426 127.255 162.742 C 127.216 162.937 127.216 163.059 127.164 163.083 C 127.118 163.201 127.118 163.32 127.061 163.452 C 126.962 163.887 126.92 164.367 126.92 164.85 C 126.92 164.913 126.867 164.913 126.867 164.913 L 126.867 164.972 L 127.52 316.547 C 127.52 318.147 128.211 319.604 129.435 320.714 C 130.603 321.716 132.148 322.251 133.799 322.119 L 176.56 317.695 C 175.029 327.782 161.933 332.231 159.383 333.003 M 326.565 287.968 C 320.811 272.641 307.607 260.835 291.019 256.414 C 291.319 256.505 267.757 248.605 256.574 244.88 C 246.696 240.629 235.583 238.917 224.622 240.514 C 206.765 242.939 192.488 253.284 183.993 269.274 L 181.516 186.173 L 187.136 184.347 C 188.932 185.85 190.854 187.158 192.883 188.358 C 194.382 189.245 195.973 189.881 197.578 190.528 L 236.091 208.401 C 241.528 211.309 258.828 214.752 268.18 211.563 C 317.118 195.541 314.937 151.517 314.895 151.086 C 314.895 150.571 311.865 113.81 311.036 94.919 C 311.011 94.741 311.011 94.428 310.955 94.254 C 308.739 81.972 301.839 74.796 294.681 68.834 C 294.815 69.095 256.828 33.812 256.828 33.812 C 256.514 33.611 256.221 33.475 255.812 33.263 C 253.604 31.448 251.19 29.892 248.618 28.626 C 239.203 24.034 228.341 23.839 220.156 28 C 220.156 28 88.344 98.957 76.24 105.518 C 75.411 106.005 62.672 114.186 61.455 131.679 C 59.119 148.153 57.585 152.401 51.538 157.131 C 32.894 164.057 32.29 183.321 32.29 184.264 C 32.29 184.034 25.454 323.201 25.454 323.201 C 25.21 331.942 29.295 349.13 46.86 352.114 C 49.474 352.549 51.337 353.582 52.618 355.481 C 55.782 360.125 54.773 368.508 54.11 371.315 C 54.064 371.705 53.997 372.119 53.997 372.446 C 53.944 374.985 53.997 393.212 63.3 401.338 C 64.887 404.709 78.085 430.37 97.332 432.137 L 112.809 433.657 C 133.602 435.765 168.449 439.302 181.82 440.276 C 186.212 440.582 190.392 440.276 194.343 439.302 C 201.378 438.558 222.576 436.165 236.275 434.175 C 271.457 428.867 279.261 390.402 280.965 376.665 C 287.572 375.406 299.338 371.378 311.311 357.742 C 311.565 357.506 311.66 357.308 311.766 357.165 C 333.614 325.476 331.896 302.076 326.565 287.968" style="fill: rgb(255, 255, 255);"/>
  <path d="M995.13 235.163h69.51v-14.694c0-4.428.264-8.076-2.994-11.118l-9.222-8.004c-3.012-2.826-7.716-3.144-11.544-3.144h-20.382c-4.416 0-8.16 0-12.138 2.838l-8.352 6.102c-2.898 2.208-4.878 4.02-4.878 10.956zm19.89 74.076c-9.924 0-13.956 0-21.48-6.528l-10.242-9c-9.492-8.46-12.276-14.016-12.276-26.988v-46.404c0-12.738 1.722-20.346 11.694-28.77l8.544-7.218c11.358-9.798 16.854-10.02 26.658-10.02h21.906c11.814 0 17.388 1.17 26.55 8.742l9.768 7.782c11.106 8.682 12.522 18.018 12.522 31.254v19.368c0 13.632-2.226 17.742-16.536 17.742H995.13v8.016c0 2.274 1.632 5.154 3.474 6.984l6.036 6.48c3.282 3.48 7.956 4.572 15.858 4.572h51.63c8.136 0 16.536 1.734 16.536 11.892 0 10.608-9.444 12.096-16.536 12.096zM879.528 204.227V192.1c0-8.544 1.5-17.79 12.234-17.79 8.58 0 11.784 6.726 11.784 14.484v17.004c0 3.996-1.008 6.054-2.796 9.798l-35.802 78.654c-2.286 4.968-6.468 14.988-12.564 14.988h-15.48c-6.012 0-10.29-10.02-12.486-14.988l-35.79-78.654c-1.866-3.744-2.742-5.802-2.742-9.798v-17.004c0-7.758 3.27-14.484 11.616-14.484 10.83 0 12.306 9.246 12.306 17.79v12.126l34.854 79.932zM638.96 248.83c-6.462 0-16.11 1.77-16.11 10.567v16.02c0 8.16 9.804 9.834 15.666 9.834h26.46l26.538-13.956v-5.112c0-13.326-3.756-17.352-16.986-17.352zm.264-50.627c-6.99 0-16.5-1.452-16.5-11.814 0-10.368 8.43-12.078 16.5-12.078h32.988c12.576 0 21.57 1.17 31.11 10.71 9.27 9.234 10.464 16.476 10.818 28.56l2.448 81.666c.234 7.008-3.24 13.992-11.202 13.992-6.264 0-12.588-5.322-12.408-12.096l-16.41 8.556c-6.834 3.54-7.068 3.54-14.832 3.54h-23.052c-10.734 0-18.516-1.278-27.246-8.496-10.038-8.262-12.504-17.004-12.504-29.58v-10.488c0-11.544 2.808-18.786 11.712-26.802 8.394-7.308 17.544-9.042 28.038-9.042h51.6v-5.484c0-18-3.996-21.144-21.306-21.144zM414.278 230.147c0-14.796 2.7-22.02 14.238-31.626l17.712-14.778c11.364-9.21 17.148-9.432 31.11-9.432h38.094c7.998 0 16.578 1.71 16.578 12.078 0 10.362-9.534 11.814-16.578 11.814h-42.348c-4.752 0-9.51 2.592-13.824 6.024l-14.49 12.456c-3.768 2.952-6.486 5.406-6.486 10.164v29.796c0 4.71 2.718 7.326 6.486 10.23l14.49 12.282c4.314 3.54 9.072 6.096 13.824 6.096h42.348c7.044 0 16.578 1.428 16.578 11.892 0 10.422-8.58 12.096-16.578 12.096h-38.094c-13.962 0-19.746-.234-31.11-9.444l-17.712-14.85c-11.538-9.528-14.238-16.698-14.238-31.536z" style="fill: rgb(255, 255, 255);"/>
</svg>

<svg xmlns="http://www.w3.org/2000/svg" viewBox="25.44 25.02 1063.22 415.37"><path d="M302.63 350.7c-13.92 15.65-26.1 15.26-26.6 15.25l-.05.01-.1-.01-16.89-.38a81 81 0 0 0 11.84-10.97q.18-.27.43-.54c30.18-43.9 20.16-73.44 11.5-87.18q-.62-.97-1.36-1.86l6.4 2.1c13.28 3.54 23.76 12.77 28.21 24.79 4.32 11.48 5.46 31.08-13.38 58.78m-68.03 72.45c-5.42.83-12.02 1.71-18.5 2.43 13.23-15.09 18.72-37.8 20.23-49.4l33.17.83c-1.74 12.67-8.58 42.14-34.9 46.14m-51.93 6.04c-13.2-1.03-48-4.5-68.75-6.67l-15.5-1.5c-7.38-.66-14.54-8.36-19.5-15.45 20.43 1.5 68.3 4.24 77.72 4.13 13-.4 27.96-6.8 31.33-18.55 2.23-7.6 2.36-8.6 2.73-13 .25-2.37.51-6.04 1.52-13.57 2.52-18.33 11.93-21.91 13.56-22.39 3.49-.2 17.91-1.86 30.36-14.6.14-.2.24-.4.44-.56 11.62-15.09 6.57-38.65 6.44-39.67-.06-.18-2-12.58-12.16-19.44-6.4-4.42-14.26-5.62-23.42-3.77a36 36 0 0 0-8.7 3.05 42 42 0 0 1 27.47-15.7 48 48 0 0 1 19.67 1.43c.47.22.88.45 1.38.59l5.82 1.98a46.3 46.3 0 0 1 20.07 17.23c7.24 11.42 15.3 36.22-11.09 74.82-14.74 16.63-27.82 17.4-30.08 17.46l-.52-.06c-.32 0-.52.1-.83.1q-.08-.01-.14.05a5.7 5.7 0 0 0-4.63 4.07s0 .06-.05.09c0 .22-.05.43-.05.63-.05.19-.05.3-.05.45-.35 6.73-5.19 37.02-21.7 51.53a27.6 27.6 0 0 1-11.79 6.44c-.91.08-1.37.08-1.48.16q-.89.11-1.7.49-3.16.38-6.37.23M48.75 341.06c-12.16-2.01-12.02-16.89-12.02-17.44l6.88-139.07c0-.69.48-13.29 12.61-17.22a4 4 0 0 0 1.67-.92c10.34-7.87 12.39-15.86 14.74-33.65.9-12 9.08-17.53 9.4-17.7 40.15-21.8 117.44-63.63 120.2-65.03 2.9-1.43 7.34-2.7 10.33-1.34 1.8.86 3.18 2.86 4.04 5.84.74 15.53 4.04 59.6 4.34 64.39-.1 2.19-1.8 21.68-19.82 26.18-5.44 1.43-9.76 1.14-12.64-.91-4.49-3.04-5.13-9.37-5.13-9.4-.03-.26-.03-.4-.12-.6l-2.33-11.83a14.2 14.2 0 0 0-6.73-9.67c-7.88-4.75-19.33-1.8-20.65-1.47q-.52.16-.97.42c-.37.15-33.23 16.57-46.4 22.9-15.72 7.48-14.3 29.75-14.25 30.68l-.86 155.66c0 1.47.2 13.83 7.64 21.1a17.6 17.6 0 0 0 12.89 4.78c15.23-.34 47.86-2.62 49.2-2.67.41-.07.7-.09 1.05-.15.99-.31 24.45-6.58 26.15-26.14a616 616 0 0 1 2.36-21.53c.06-.43 3.76-17.93 19.35-21.21 6.06-1.2 10.96-.6 14.58 1.94 6.17 4.2 7.57 12.35 7.57 12.4.09.57 4.15 19.69-4.06 30.69-10.55 10.58-22.35 10.92-22.84 10.92-.32 0-.64.08-.92.14-.8.16-19.2 3.61-23 31.95a281 281 0 0 0-1.57 14.14c-.31 3.64-.31 3.87-2.38 10.85-1.68 5.98-12.06 10.23-20.74 10.37-9.9.22-69.1-3.22-83.28-4.53-5.54-.55-7.75-13.56-7.75-20.73.67-3.24 2.64-15.23-3.29-23.9-2.98-4.41-7.58-7.24-13.25-8.24m194.8-302.4c4.7 2.17 12.83 8.03 15.33 21.75 1.03 21.52 4.47 63.14 4.52 63.5.07 1.56 1.7 40.94-44.32 55.94-6.26 2.07-11.92 2.16-17.04.4-1.35-.66-2.16-1.03-2.16-1.03-.32-.17-.57-.23-.93-.34l-.46-.21c-11.19-6.18-17.02-20.65-19.3-27.64q1.26 1.2 2.69 2.22c5.82 4.08 13.23 5 22.07 2.66 21.62-5.53 27.97-26.54 28.32-36.91v-.48c-.04-.57-3.68-49.99-4.42-65.19q.01-.64-.14-1.1c-1.65-6.04-4.42-9.55-7.23-11.72l4.99-2.64c4.85-2.46 11.99-2.3 18.09.8m56.18 57.35c.94 19.1 3.87 55.47 3.87 55.81.1 1.34 1.48 35.88-38.97 49.28-6 2-20.09-.92-23.47-2.74-.1-.06-8.57-3.94-17.74-8.24 53.63-18.01 51.27-66.53 51.27-66.97-.05-.58-3.3-39.9-4.43-61.59l16.86 15.58c5.6 4.68 10.97 9.73 12.61 18.87M138.8 310.37l-.53-137.19 31.88 12.77 3.71 120.8zm37.11-134.15-28.48-11.37 21.5-8.82c1.78 5.06 4.93 12.5 9.86 19.31zM159.38 333c-4.5.31-34.2 2.25-48.08 2.62a6 6 0 0 1-4.72-1.65c-3.5-3.3-4.27-10.66-4.27-12.97l.81-156.09c0-.62-.7-16.19 7.98-20.35a3001 3001 0 0 0 45.9-22.69c2.79-.65 8.53-1.33 11.25.34.62.37 1.23.95 1.54 2.34l2.31 11.55c.05 1.03.53 3.76 1.86 6.98a5.2 5.2 0 0 0-3.62.23l-39.98 16.36c-.4.25-.87.52-1.3.82a1 1 0 0 0-.24.23c-.35.31-.66.62-.98 1.05v.03c-.22.29-.37.63-.59.94-.03.2-.03.32-.09.34-.04.12-.04.24-.1.37q-.14.67-.14 1.4c0 .06-.05.06-.05.06v.06l.65 151.58c0 1.6.7 3.05 1.92 4.16a6 6 0 0 0 4.36 1.4l42.76-4.42c-1.53 10.1-14.63 14.54-17.18 15.31m167.19-45.03c-5.76-15.33-18.96-27.14-35.55-31.56.3.1-23.26-7.8-34.45-11.53a59.5 59.5 0 0 0-31.95-4.37c-17.86 2.43-32.13 12.77-40.63 28.76l-2.47-83.1 5.62-1.82c1.8 1.5 3.71 2.8 5.74 4 1.5.9 3.1 1.53 4.7 2.18l38.51 17.87c5.44 2.9 22.74 6.35 32.09 3.16 48.94-16.02 46.76-60.04 46.71-60.47 0-.52-3.02-37.28-3.85-56.17-.03-.18-.03-.5-.09-.67-2.21-12.28-9.11-19.45-16.27-25.42.13.27-37.85-35.02-37.85-35.02-.32-.2-.6-.34-1.02-.55a37 37 0 0 0-7.2-4.63c-9.4-4.6-20.27-4.8-28.45-.63 0 0-131.82 70.96-143.92 77.52-.83.48-13.57 8.67-14.78 26.16-2.34 16.47-3.87 20.72-9.92 25.45-18.65 6.93-19.25 26.2-19.25 27.13 0-.23-6.84 138.94-6.84 138.94-.24 8.74 3.85 25.93 21.41 28.91 2.61.44 4.48 1.47 5.76 3.37 3.16 4.64 2.15 13.03 1.49 15.83q-.1.62-.11 1.14c-.06 2.54 0 20.76 9.3 28.89 1.59 3.37 14.78 29.03 34.03 30.8l15.48 1.52c20.8 2.1 55.64 5.64 69.01 6.62q6.6.47 12.52-.98c7.04-.74 28.24-3.13 41.94-5.12 35.18-5.31 42.98-43.78 44.68-57.51 6.61-1.26 18.38-5.3 30.35-18.93.25-.23.35-.43.46-.57 21.84-31.7 20.13-55.1 14.8-69.2m668.56-52.81h69.51v-14.7c0-4.42.26-8.07-3-11.1l-9.22-8.01c-3-2.83-7.71-3.15-11.54-3.15h-20.38c-4.42 0-8.16 0-12.14 2.84l-8.35 6.1c-2.9 2.21-4.88 4.02-4.88 10.96zm19.89 74.08c-9.92 0-13.96 0-21.48-6.53l-10.24-9c-9.5-8.46-12.28-14.01-12.28-26.99v-46.4c0-12.74 1.72-20.35 11.7-28.77l8.54-7.22c11.36-9.8 16.85-10.02 26.66-10.02h21.9c11.82 0 17.4 1.17 26.55 8.74l9.77 7.78c11.1 8.69 12.52 18.02 12.52 31.26v19.37c0 13.63-2.22 17.74-16.53 17.74h-77v8.02c0 2.27 1.63 5.15 3.47 6.98l6.04 6.48c3.28 3.48 7.96 4.57 15.86 4.57h51.63c8.13 0 16.53 1.74 16.53 11.9 0 10.6-9.44 12.09-16.53 12.09zm-135.5-105.01V192.1c0-8.54 1.5-17.79 12.24-17.79 8.58 0 11.79 6.73 11.79 14.48v17c0 4-1.01 6.06-2.8 9.8l-35.8 78.66c-2.29 4.97-6.47 14.99-12.57 14.99H836.9c-6 0-10.29-10.02-12.48-14.99l-35.8-78.65c-1.86-3.75-2.73-5.8-2.73-9.8v-17c0-7.76 3.27-14.49 11.61-14.49 10.83 0 12.3 9.25 12.3 17.79v12.13l34.86 79.93zm-240.56 44.6c-6.46 0-16.11 1.77-16.11 10.57v16.02c0 8.16 9.8 9.83 15.67 9.83h26.46l26.53-13.96v-5.1c0-13.33-3.75-17.36-16.98-17.36zm.26-50.63c-6.99 0-16.5-1.45-16.5-11.81s8.43-12.08 16.5-12.08h33c12.57 0 21.56 1.17 31.1 10.71 9.27 9.24 10.47 16.48 10.82 28.56l2.45 81.67c.23 7-3.24 13.99-11.2 13.99-6.27 0-12.6-5.32-12.41-12.1l-16.41 8.56c-6.84 3.54-7.07 3.54-14.83 3.54h-23.06c-10.73 0-18.51-1.28-27.24-8.5-10.04-8.26-12.5-17-12.5-29.58v-10.48c0-11.55 2.8-18.8 11.7-26.8 8.4-7.31 17.55-9.05 28.04-9.05h51.6v-5.48c0-18-4-21.15-21.3-21.15zm-224.94 31.95c0-14.8 2.7-22.02 14.24-31.63l17.7-14.78c11.37-9.2 17.16-9.43 31.12-9.43h38.1c7.99 0 16.57 1.71 16.57 12.08 0 10.36-9.53 11.81-16.58 11.81h-42.35c-4.75 0-9.5 2.6-13.82 6.03l-14.49 12.45c-3.77 2.95-6.49 5.4-6.49 10.17v29.8c0 4.7 2.72 7.32 6.49 10.22l14.49 12.28c4.31 3.54 9.07 6.1 13.82 6.1h42.35c7.05 0 16.58 1.43 16.58 11.9 0 10.41-8.58 12.09-16.58 12.09h-38.1c-13.95 0-19.74-.24-31.1-9.45l-17.71-14.85c-11.54-9.52-14.24-16.7-14.24-31.53z" style="fill:#fff"/></svg>
